X:1266
L:1/8
M:4/4
K:D
 D | D3 F A3 B | (AG) (E>D) D2 (d>A) | B2 (d>e){de} f2 (Te>d) | B6 d2 | (A>B) (d>e){de} f2 (Te>d) | 
 d2 (D>E) F2 (TED) | G3 A (B>cd) F | E8 |] D3 F A3 B | A F E3/2 F/ D2 (d>A) | 
 B2 d3/2 e/({e} d>ef) A | B4 z2 d2 | (A>B) (d>e) f2 (Te>d) | (dc) (BA){G} F2 (TED) | 
 G3 B (A>Bd) F | E6 z |]

